X: 19
T: Bransle de la Montarde
C: Pierre Phalese, 1571
K: F major
M: 2/2
L: 1/4
P: A
"Gm"d"C"e "F"f"Gm"d | "C"ge "Dm"f"Gm"d | "Gm"d/c/d B/c/"Bb"d | "F"c"Gm"B "D"AA | "Gm"d"C"e "F"f"Gm"d | 
"C"ge "Dm"f"Gm"d | \
"Gm"d/c/d B/c/"Bb"d | "F"c/B/A "Gm"BG |: \
P: B - repeat for each dancer in set
"Bb"dd "Eb"B/c/"Bb"d | "F"c/B/A "Gm"BG :| 


